X:1
T:Title
%%score { ( 1 4 ) | ( 2 3 ) }
L:1/8
M:4/4
K:Bb
V:1 treble nm="Grand Piano"
V:4 treble 
V:2 bass 
V:3 bass 
V:1
 z4 z2[Q:1/4=94] D>E | [DF]2 [GB]>c [Fd]2 [Ec][DB] | [Ec]2 [GB]>A [EG]2 [EG]>G | %3
 [DF]2 [GB]>c [Fd]2 [^Fe]>d | [Ec]6 [B,D]>E | [DF]2 [GB]>c [Fd]2 [Ec][DB] | %6
 [Ec]2 [GB]>A [EG]2 [EG]>G | [DF]2 [GB]>c [Fd]2 [Ec]2 |[M:3/4] [DB]6 |[M:1/4] A>B | %10
[M:3/4] c2 c>B A2 |[M:1/4] G>F |[M:4/4] [DF] [DB]2 [Ge] [Fd]2 [Fd]>[Fd] | %13
 [=Ec]2 [EG]>[EA] [EB]2 [Ec]>[Ed] | c6[K:bass] z2[K:treble] | [DF]2 [GB]>[^Fc] [=Fd]2 [Fc]>[FB] | %16
 [Ec]2 [GB]>[FA] G2 G>G | F2 B>c d2 c2 |[M:3/4] [DB]6 |] %19
V:2
 z4 z2 B,>C | B,,F, .B,>^F B,,F,B,F, | E,G, .B,>F E,G, .B,>E | B,,F, .B,>^F B,,F, .B,>=F | %4
 F,G,A,G, F,E, .D,>C | B,,F, .B,>^F B,,F,B,F, | E,G, .B,>F E,G, .B,>E | B,,F, .B,>^F F,G,A,F, | %8
[M:3/4] [B,,F,]6 |[M:1/4] [F,CE]>[F,B,E] |[M:3/4] [F,A,E]2 [F,A,E]>[F,B,E] [F,CE]2 | %11
[M:1/4] [F,A,E]>[F,A,E] |[M:4/4] [B,,B,] [B,,B,]2 [B,,B,] [B,,B,]2 [B,,B,]>[B,,B,] | %13
 [C,B,]2 [C,B,]>[C,A,] [C,G,]2 [C,B,]>[C,B,] | [A,E]6 [D,F,B,]>[D,F,C] | %15
 [B,,B,]2 [B,,B,]>[B,,B,] [B,,B,]2 [C,A,]>[D,B,] | %16
 [E,G,]2 [E,B,]>[E,B,] [E,B,E]2 [=E,B,_D]>[E,B,D] | [F,B,D]2 [G,B,E]>[^F,B,E] [=F,B,F]2 [F,A,E]2 | %18
[M:3/4] [B,,B,]6 |] %19
V:3
 x8 | z2 z F, z4 | z2 z G, z2 z G, | z2 z F, z2 z F, | z4 z2 z C, | z2 z F, z4 | z2 z G, z2 z G, | %7
 z2 z F, z4 |[M:3/4] x6 |[M:1/4] x2 |[M:3/4] x6 |[M:1/4] x2 |[M:4/4] x8 | x8 | F,2 z2 z4 | x8 | %16
 x8 | x8 |[M:3/4] x6 |] %19
V:4
 x8 | x8 | x8 | x8 | x8 | x8 | x8 | x8 |[M:3/4] x6 |[M:1/4] x2 |[M:3/4] x6 |[M:1/4] x2 | %12
[M:4/4] x8 | x8 | z2[K:bass] F,G, F,E, D>[K:treble]E | x8 | x8 | x8 |[M:3/4] x6 |] %19

